;FLAVOR:Marlin
;TIME:9519
;Filament used: 6.85533m
;Layer height: 0.2
;MINX:19.445
;MINY:56.299
;MINZ:0.2
;MAXX:201.75
;MAXY:168.225
;MAXZ:18
;TARGET_MACHINE.NAME:Creality Ender-3 S1
;Generated with Cura_SteamEngine 5.5.0
M82 ;absolute extrusion mode
; Ender 3 S1 Start G-code
; M413 S0 ; Disable power loss recovery
G92 E0 ; Reset Extruder

; Prep surfaces before auto home for better accuracy
M140 S60
M104 S200

G28 ; Home all axes
G1 Z10.0 F3000 ; Move Z Axis up little to prevent scratching of Heat Bed
G1 X0 Y0

M190 S60
M109 S200

G1 X0.1 Y20 Z0.3 F5000.0 ; Move to start position
G1 X0.1 Y200.0 Z0.3 F1500.0 E15 ; Draw the first line
G1 X0.4 Y200.0 Z0.3 F5000.0 ; Move to side a little
G1 X0.4 Y20 Z0.3 F1500.0 E30 ; Draw the second line
G92 E0 ; Reset Extruder
G1 Z2.0 F3000 ; Move Z Axis up little to prevent scratching of Heat Bed
G1 X5 Y20 Z0.3 F5000.0 ; Move over to prevent blob squish

G92 E0
G92 E0
G1 F2400 E-0.8
;LAYER_COUNT:90
;LAYER:0
M107
M204 S2000
G0 F7500 X38.143 Y58.703 Z0.2
M204 S500
;TYPE:SKIRT
G1 F2400 E0
G1 F1500 X38.709 Y58.36 E0.02201
G1 X39.16 Y58.105 E0.03924
G1 X39.992 Y57.68 E0.07032
G1 X40.704 Y57.382 E0.09599
G1 X41.423 Y57.113 E0.12152
G1 X42.329 Y56.82 E0.15319
G1 X43.036 Y56.648 E0.17739
G1 X43.828 Y56.502 E0.20418
G1 X44.35 Y56.422 E0.22174
G1 X45.31 Y56.322 E0.25385
G1 X46.024 Y56.302 E0.2776
G1 X46.836 Y56.306 E0.30461
G1 X47.738 Y56.351 E0.33465
G1 X48.453 Y56.439 E0.35861
G1 X49.171 Y56.558 E0.38282
G1 X49.677 Y56.655 E0.39995
G1 X50.386 Y56.816 E0.42413
G1 X52.653 Y57.411 E0.50209
G1 X55.123 Y57.992 E0.58648
G1 X57.629 Y58.506 E0.67157
G1 X60.066 Y58.934 E0.75386
G1 X62.582 Y59.303 E0.83844
G1 X65.095 Y59.6 E0.92261
G1 X67.559 Y59.82 E1.00488
G1 X70.056 Y59.972 E1.08809
G1 X72.625 Y60.056 E1.17358
G1 X75.117 Y60.066 E1.25647
G1 X77.653 Y60.005 E1.34084
G1 X80.127 Y59.876 E1.42323
G1 X82.654 Y59.673 E1.50755
G1 X85.183 Y59.396 E1.59217
G1 X87.651 Y59.055 E1.67504
G1 X90.131 Y58.642 E1.75866
G1 X92.635 Y58.15 E1.84353
G1 X95.061 Y57.603 E1.92625
G1 X97.89 Y56.873 E2.02342
G1 X99.054 Y56.614 E2.06309
G1 X99.748 Y56.486 E2.08656
G1 X100.739 Y56.364 E2.11977
G1 X101.432 Y56.317 E2.14287
G1 X101.913 Y56.299 E2.15888
G1 X102.877 Y56.305 E2.19094
G1 X103.559 Y56.362 E2.2137
G1 X104.311 Y56.447 E2.23888
G1 X104.809 Y56.515 E2.25559
G1 X105.67 Y56.654 E2.2846
G1 X108.27 Y57.037 E2.37201
G1 X110.766 Y57.334 E2.45561
G1 X113.254 Y57.556 E2.53869
G1 X115.788 Y57.711 E2.62313
G1 X118.284 Y57.794 E2.70619
G1 X120.814 Y57.806 E2.79034
G1 X123.341 Y57.746 E2.87442
G1 X125.835 Y57.618 E2.95748
G1 X128.338 Y57.416 E3.041
G1 X130.845 Y57.143 E3.12487
G1 X133.435 Y56.787 E3.21183
G1 X134.673 Y56.594 E3.2535
G1 X135.642 Y56.491 E3.28591
G1 X136.615 Y56.474 E3.31828
G1 X137.587 Y56.542 E3.35069
G1 X138.536 Y56.693 E3.38265
G1 X139.124 Y56.831 E3.40273
G1 X140.589 Y57.224 E3.45318
G1 X141.289 Y57.433 E3.47748
G1 X142.461 Y57.859 E3.51896
G1 X143.812 Y58.441 E3.56788
G1 X146.165 Y59.403 E3.65243
G1 X148.546 Y60.298 E3.73704
G1 X150.926 Y61.117 E3.82075
G1 X153.326 Y61.869 E3.9044
G1 X155.73 Y62.547 E3.98748
G1 X158.228 Y63.175 E4.07315
G1 X160.61 Y63.704 E4.1543
G1 X163.114 Y64.186 E4.23912
G1 X165.623 Y64.595 E4.32367
G1 X168.091 Y64.927 E4.40649
G1 X170.586 Y65.19 E4.48994
G1 X173.089 Y65.384 E4.57344
G1 X175.63 Y65.508 E4.65805
G1 X178.102 Y65.559 E4.74029
G1 X182.022 Y65.501 E4.87068
G1 X183.163 Y65.461 E4.90865
G1 X184.036 Y65.456 E4.93769
G1 X184.503 Y65.468 E4.95323
G1 X185.447 Y65.515 E4.98466
G1 X186.031 Y65.557 E5.00414
G1 X187.176 Y65.711 E5.04256
G1 X187.888 Y65.85 E5.06669
G1 X188.38 Y65.959 E5.08345
G1 X189.433 Y66.25 E5.11979
G1 X190.161 Y66.499 E5.14538
G1 X190.633 Y66.674 E5.16212
G1 X191.771 Y67.172 E5.20344
G1 X192.494 Y67.539 E5.23041
G1 X193.533 Y68.14 E5.27033
G1 X194.145 Y68.541 E5.29466
G1 X194.824 Y69.025 E5.3224
G1 X195.156 Y69.283 E5.33638
G1 X195.922 Y69.936 E5.36986
G1 X196.371 Y70.356 E5.39031
G1 X196.961 Y70.956 E5.4183
G1 X197.466 Y71.512 E5.44328
G1 X198.114 Y72.296 E5.47711
G1 X198.614 Y72.985 E5.50542
G1 X198.944 Y73.476 E5.5251
G1 X199.443 Y74.298 E5.55708
G1 X199.789 Y74.936 E5.58122
G1 X200.296 Y76.012 E5.62078
G1 X200.657 Y76.929 E5.65356
G1 X200.849 Y77.47 E5.67266
G1 X201.209 Y78.714 E5.71573
G1 X201.349 Y79.333 E5.73684
G1 X201.484 Y80.013 E5.7599
G1 X201.647 Y81.221 E5.80044
G1 X201.693 Y81.817 E5.82032
G1 X201.721 Y82.418 E5.84033
G1 X201.75 Y83.981 E5.89233
G1 X201.744 Y138.191 E7.69536
G1 X201.732 Y138.703 E7.71239
G1 X201.685 Y139.651 E7.74396
G1 X201.642 Y140.243 E7.7637
G1 X201.495 Y141.347 E7.80075
G1 X201.351 Y142.079 E7.82556
G1 X201.224 Y142.639 E7.84466
G1 X200.924 Y143.713 E7.88175
G1 X200.673 Y144.442 E7.90739
G1 X200.515 Y144.86 E7.92225
G1 X200.163 Y145.69 E7.95224
G1 X199.864 Y146.304 E7.97495
G1 X199.63 Y146.758 E7.99194
G1 X199.078 Y147.704 E8.02837
G1 X198.674 Y148.322 E8.05293
G1 X198.219 Y148.968 E8.07921
G1 X197.986 Y149.271 E8.09192
G1 X197.381 Y149.992 E8.12322
G1 X196.933 Y150.481 E8.14528
G1 X196.465 Y150.961 E8.16758
G1 X196.194 Y151.222 E8.18009
G1 X195.409 Y151.904 E8.21468
G1 X194.787 Y152.394 E8.24102
G1 X194.142 Y152.865 E8.26758
G1 X193.743 Y153.133 E8.28357
G1 X192.918 Y153.634 E8.31567
G1 X192.291 Y153.977 E8.33944
G1 X191.176 Y154.504 E8.38046
G1 X190.324 Y154.836 E8.41087
G1 X189.68 Y155.063 E8.43358
G1 X188.489 Y155.408 E8.47482
G1 X187.892 Y155.543 E8.49518
G1 X187.133 Y155.694 E8.52092
G1 X185.938 Y155.85 E8.561
G1 X185.337 Y155.895 E8.58105
G1 X184.771 Y155.921 E8.59989
G1 X183.45 Y155.948 E8.64384
G1 X167.799 Y155.949 E9.1644
G1 X167.068 Y155.937 E9.18871
G1 X166.183 Y155.887 E9.21819
G1 X165.122 Y155.784 E9.25365
G1 X162.462 Y155.556 E9.34244
G1 X159.981 Y155.418 E9.42509
G1 X157.445 Y155.347 E9.50947
G1 X154.955 Y155.347 E9.59229
G1 X152.391 Y155.42 E9.6776
G1 X149.931 Y155.561 E9.75956
G1 X147.363 Y155.78 E9.84528
G1 X146.352 Y155.884 E9.87908
G1 X145.544 Y155.937 E9.90601
G1 X144.917 Y155.95 E9.92687
G1 X125.996 Y155.945 E10.55619
G1 X123.462 Y156.016 E10.6405
G1 X120.968 Y156.157 E10.72359
G1 X118.437 Y156.369 E10.80806
G1 X115.948 Y156.652 E10.89138
G1 X113.447 Y157.007 E10.9754
G1 X111.024 Y157.422 E11.05716
G1 X107.444 Y158.158 E11.17872
G1 X105.837 Y158.52 E11.23351
G1 X104.71 Y158.744 E11.27173
G1 X102.146 Y159.276 E11.35882
G1 X99.69 Y159.859 E11.44278
G1 X97.239 Y160.515 E11.52717
G1 X94.888 Y161.215 E11.60876
G1 X92.445 Y162.02 E11.69431
G1 X90.078 Y162.874 E11.778
G1 X87.751 Y163.787 E11.86114
G1 X85.45 Y164.76 E11.94424
G1 X84.373 Y165.146 E11.98229
G1 X83.211 Y165.486 E12.02256
G1 X81.59 Y165.915 E12.07833
G1 X79.107 Y166.608 E12.16407
G1 X77.983 Y166.958 E12.20322
G1 X75.902 Y167.572 E12.27539
G1 X74.855 Y167.854 E12.31145
G1 X73.904 Y168.063 E12.34384
G1 X72.938 Y168.187 E12.37623
G1 X71.964 Y168.225 E12.40865
G1 X71.062 Y168.183 E12.43868
G1 X70.023 Y168.039 E12.47357
G1 X68.969 Y167.792 E12.50958
G1 X67.832 Y167.461 E12.54896
G1 X67.113 Y167.239 E12.57399
G1 X66.143 Y166.886 E12.60832
G1 X64.696 Y166.281 E12.66049
G1 X61.475 Y165.026 E12.77546
G1 X60.95 Y164.804 E12.79442
G1 X58.722 Y163.796 E12.87576
G1 X56.349 Y162.8 E12.96135
G1 X54.018 Y161.898 E13.04449
G1 X51.67 Y161.065 E13.12735
G1 X49.246 Y160.282 E13.21207
G1 X46.82 Y159.571 E13.29616
G1 X44.402 Y158.939 E13.37928
G1 X41.953 Y158.366 E13.46294
G1 X41.014 Y158.098 E13.49541
G1 X40.262 Y157.84 E13.52186
G1 X39.841 Y157.681 E13.53682
G1 X39.01 Y157.329 E13.56684
G1 X38.397 Y157.03 E13.58953
G1 X37.923 Y156.785 E13.60727
G1 X36.986 Y156.239 E13.64334
G1 X36.368 Y155.835 E13.6679
G1 X35.731 Y155.384 E13.69386
G1 X35.428 Y155.151 E13.70657
G1 X34.706 Y154.545 E13.73792
G1 X34.216 Y154.095 E13.76005
G1 X33.736 Y153.627 E13.78235
G1 X33.496 Y153.378 E13.79385
G1 X33.01 Y152.837 E13.81804
G1 X32.686 Y152.452 E13.83477
G1 X32.235 Y151.875 E13.85913
G1 X31.404 Y150.735 E13.90605
G1 X29.888 Y148.718 E13.98998
G1 X28.348 Y146.787 E14.07212
G1 X26.687 Y144.816 E14.15785
G1 X25.033 Y142.966 E14.24039
G1 X22.945 Y140.762 E14.34137
G1 X22.31 Y140.024 E14.37375
G1 X21.741 Y139.234 E14.40613
G1 X21.279 Y138.458 E14.43617
G1 X20.823 Y137.509 E14.47119
G1 X20.426 Y136.413 E14.50996
G1 X20.034 Y135.109 E14.55525
G1 X19.836 Y134.396 E14.57986
G1 X19.621 Y133.447 E14.61222
G1 X19.489 Y132.481 E14.64465
G1 X19.445 Y131.508 E14.67705
G1 X19.487 Y130.536 E14.70941
G1 X19.602 Y129.641 E14.73942
G1 X19.85 Y128.534 E14.77715
G1 X20.127 Y127.543 E14.81137
G1 X20.452 Y126.487 E14.84812
G1 X20.855 Y125.409 E14.8864
G1 X21.27 Y124.464 E14.92073
G1 X22.288 Y122.038 E15.00823
G1 X23.195 Y119.699 E15.09167
G1 X24.03 Y117.348 E15.17465
G1 X24.798 Y114.971 E15.25774
G1 X25.514 Y112.528 E15.34241
G1 X26.15 Y110.104 E15.42576
G1 X26.722 Y107.633 E15.51012
G1 X27.223 Y105.164 E15.59391
G1 X27.649 Y102.705 E15.67692
G1 X28.009 Y100.205 E15.76093
G1 X28.293 Y97.751 E15.84309
G1 X28.515 Y95.204 E15.92813
G1 X28.661 Y92.689 E16.01192
G1 X28.738 Y90.17 E16.09574
G1 X28.75 Y88.664 E16.14583
G1 X28.751 Y86.466 E16.21893
G1 X28.76 Y85.815 E16.24059
G1 X28.794 Y84.968 E16.26878
G1 X28.823 Y84.517 E16.28381
G1 X29.095 Y81.386 E16.38834
G1 X29.284 Y78.188 E16.4949
G1 X29.45 Y76.261 E16.55922
G1 X29.672 Y74.417 E16.621
G1 X29.828 Y73.399 E16.65525
G1 X29.944 Y72.753 E16.67708
G1 X30.193 Y71.509 E16.71928
G1 X30.366 Y70.772 E16.74446
G1 X30.502 Y70.242 E16.76266
G1 X30.73 Y69.441 E16.79036
G1 X30.857 Y69.033 E16.80457
G1 X31.246 Y67.866 E16.84548
G1 X31.521 Y67.135 E16.87146
G1 X31.79 Y66.493 E16.89461
G1 X32.038 Y65.944 E16.91465
G1 X32.393 Y65.227 E16.94126
G1 X32.639 Y64.757 E16.9589
G1 X33.068 Y64.013 E16.98747
G1 X33.457 Y63.407 E17.01142
G1 X33.739 Y62.988 E17.02822
G1 X34.266 Y62.275 E17.05771
G1 X34.78 Y61.657 E17.08444
G1 X35.183 Y61.206 E17.10456
G1 X36.123 Y60.277 E17.14851
G1 X36.778 Y59.708 E17.17737
G1 X37.511 Y59.128 E17.20846
G1 X38.143 Y58.703 E17.23379
M204 S2000
G0 F7500 X38.351 Y59.045
M204 S500
G1 F1500 X38.906 Y58.708 E17.25539
G1 X39.342 Y58.461 E17.27205
G1 X40.146 Y58.049 E17.3021
G1 X40.845 Y57.757 E17.3273
G1 X41.546 Y57.494 E17.3522
G1 X42.452 Y57.201 E17.38387
G1 X43.13 Y57.037 E17.40707
G1 X43.888 Y56.897 E17.43271
G1 X44.392 Y56.82 E17.44967
G1 X45.321 Y56.722 E17.48074
G1 X46.022 Y56.702 E17.50406
G1 X46.816 Y56.706 E17.53047
G1 X47.718 Y56.751 E17.56051
G1 X48.388 Y56.834 E17.58296
G1 X49.096 Y56.951 E17.60683
G1 X49.588 Y57.045 E17.62349
G1 X50.284 Y57.203 E17.64723
G1 X52.551 Y57.798 E17.72518
G1 X55.043 Y58.384 E17.81033
G1 X57.551 Y58.898 E17.89548
G1 X60.008 Y59.33 E17.97845
G1 X62.524 Y59.699 E18.06303
G1 X65.049 Y59.997 E18.14759
G1 X67.532 Y60.219 E18.23051
G1 X70.043 Y60.372 E18.31418
G1 X72.612 Y60.456 E18.39967
G1 X75.125 Y60.466 E18.48325
G1 X77.663 Y60.405 E18.56769
G1 X80.159 Y60.275 E18.65082
G1 X82.693 Y60.071 E18.73538
G1 X85.226 Y59.794 E18.82013
G1 X87.717 Y59.45 E18.90376
G1 X90.202 Y59.036 E18.98755
G1 X92.712 Y58.543 E19.07263
G1 X95.149 Y57.993 E19.15573
G1 X97.977 Y57.263 E19.25287
G1 X99.127 Y57.007 E19.29205
G1 X99.797 Y56.883 E19.31472
G1 X100.766 Y56.763 E19.34719
G1 X101.448 Y56.717 E19.36993
G1 X101.911 Y56.699 E19.38534
G1 X102.844 Y56.704 E19.41637
G1 X103.514 Y56.759 E19.43873
G1 X104.257 Y56.843 E19.4636
G1 X104.745 Y56.91 E19.47998
G1 X105.612 Y57.05 E19.50919
G1 X108.212 Y57.433 E19.5966
G1 X110.72 Y57.731 E19.68061
G1 X113.227 Y57.955 E19.76432
G1 X115.775 Y58.111 E19.84923
G1 X118.271 Y58.194 E19.93229
G1 X120.821 Y58.206 E20.0171
G1 X123.35 Y58.146 E20.10124
G1 X125.867 Y58.016 E20.18507
G1 X128.377 Y57.814 E20.26882
G1 X130.888 Y57.541 E20.35283
G1 X133.495 Y57.182 E20.44036
G1 X134.716 Y56.992 E20.48146
G1 X135.65 Y56.891 E20.5127
G1 X136.588 Y56.873 E20.54391
G1 X137.524 Y56.937 E20.57511
G1 X138.445 Y57.083 E20.60613
G1 X139.02 Y57.217 E20.62576
G1 X140.475 Y57.607 E20.67587
G1 X141.153 Y57.809 E20.6994
G1 X142.303 Y58.226 E20.74008
G1 X143.661 Y58.811 E20.78926
G1 X146.024 Y59.777 E20.87417
G1 X148.416 Y60.676 E20.95916
G1 X150.806 Y61.499 E21.04323
G1 X153.206 Y62.251 E21.12688
G1 X155.632 Y62.935 E21.21072
G1 X158.13 Y63.563 E21.29639
G1 X160.534 Y64.097 E21.37829
G1 X163.039 Y64.579 E21.46314
G1 X165.559 Y64.99 E21.54806
G1 X168.049 Y65.325 E21.63163
G1 X170.549 Y65.589 E21.71524
G1 X173.07 Y65.784 E21.79934
G1 X175.611 Y65.908 E21.88395
G1 X178.1 Y65.959 E21.96675
G1 X182.036 Y65.901 E22.09768
G1 X183.165 Y65.861 E22.13526
G1 X184.026 Y65.856 E22.16389
G1 X184.483 Y65.868 E22.1791
G1 X185.418 Y65.914 E22.21023
G1 X186.002 Y65.956 E22.22971
G1 X187.099 Y66.104 E22.26652
G1 X187.802 Y66.241 E22.29035
G1 X188.273 Y66.345 E22.30639
G1 X189.326 Y66.636 E22.34272
G1 X190.022 Y66.874 E22.36719
G1 X190.494 Y67.049 E22.38393
G1 X191.59 Y67.529 E22.42373
G1 X192.313 Y67.896 E22.4507
G1 X193.314 Y68.475 E22.48916
G1 X193.913 Y68.867 E22.51297
G1 X194.579 Y69.341 E22.54016
G1 X194.897 Y69.587 E22.55353
G1 X195.649 Y70.228 E22.58639
G1 X196.086 Y70.637 E22.6063
G1 X196.665 Y71.225 E22.63375
G1 X197.158 Y71.767 E22.65812
G1 X197.79 Y72.531 E22.6911
G1 X198.282 Y73.208 E22.71893
G1 X198.602 Y73.684 E22.73801
G1 X199.101 Y74.506 E22.76999
G1 X199.427 Y75.106 E22.7927
G1 X199.934 Y76.182 E22.83226
G1 X200.28 Y77.063 E22.86374
G1 X200.472 Y77.604 E22.88284
G1 X200.819 Y78.802 E22.92432
G1 X200.959 Y79.421 E22.94543
G1 X201.088 Y80.066 E22.96731
G1 X201.248 Y81.252 E23.00711
G1 X201.293 Y81.836 E23.02659
G1 X201.321 Y82.425 E23.0462
G1 X201.35 Y83.981 E23.09797
G1 X201.344 Y138.181 E24.90067
G1 X201.332 Y138.683 E24.91737
G1 X201.286 Y139.622 E24.94864
G1 X201.243 Y140.214 E24.96838
G1 X201.102 Y141.27 E25.00381
G1 X200.961 Y141.991 E25.02825
G1 X200.839 Y142.532 E25.04669
G1 X200.546 Y143.583 E25.08298
G1 X200.299 Y144.301 E25.10824
G1 X200.147 Y144.704 E25.12256
G1 X199.803 Y145.515 E25.15186
G1 X199.508 Y146.121 E25.17428
G1 X199.274 Y146.575 E25.19127
G1 X198.743 Y147.485 E25.22631
G1 X198.347 Y148.092 E25.25041
G1 X197.901 Y148.725 E25.27617
G1 X197.68 Y149.014 E25.28827
G1 X197.086 Y149.722 E25.31901
G1 X196.647 Y150.202 E25.34064
G1 X196.187 Y150.673 E25.36254
G1 X195.931 Y150.92 E25.37437
G1 X195.161 Y151.59 E25.40832
G1 X194.551 Y152.071 E25.43416
G1 X193.919 Y152.533 E25.4602
G1 X193.535 Y152.791 E25.47558
G1 X192.726 Y153.283 E25.50708
G1 X192.12 Y153.615 E25.53006
G1 X191.005 Y154.142 E25.57108
G1 X190.191 Y154.459 E25.60013
G1 X189.569 Y154.679 E25.62207
G1 X188.4 Y155.018 E25.66256
G1 X187.814 Y155.151 E25.68254
G1 X187.081 Y155.297 E25.7074
G1 X185.908 Y155.451 E25.74675
G1 X185.318 Y155.495 E25.76643
G1 X184.763 Y155.521 E25.78491
G1 X183.45 Y155.548 E25.82859
G1 X167.805 Y155.549 E26.34894
G1 X167.091 Y155.538 E26.37269
G1 X166.222 Y155.489 E26.40164
G1 X165.156 Y155.385 E26.43727
G1 X162.496 Y155.158 E26.52606
G1 X159.992 Y155.018 E26.60947
G1 X157.456 Y154.947 E26.69385
G1 X154.944 Y154.947 E26.7774
G1 X152.38 Y155.02 E26.86272
G1 X149.897 Y155.162 E26.94544
G1 X147.329 Y155.381 E27.03116
G1 X146.326 Y155.485 E27.0647
G1 X145.536 Y155.537 E27.09103
G1 X144.917 Y155.55 E27.11162
G1 X125.985 Y155.545 E27.7413
G1 X123.451 Y155.616 E27.82562
G1 X120.934 Y155.758 E27.90947
G1 X118.403 Y155.971 E27.99395
G1 X115.892 Y156.256 E28.078
G1 X113.391 Y156.611 E28.16202
G1 X110.943 Y157.03 E28.24462
G1 X107.363 Y157.766 E28.36618
G1 X105.759 Y158.128 E28.42087
G1 X104.629 Y158.352 E28.45919
G1 X102.065 Y158.884 E28.54628
G1 X99.598 Y159.47 E28.63062
G1 X97.125 Y160.132 E28.71577
G1 X94.763 Y160.835 E28.79773
G1 X92.32 Y161.64 E28.88329
G1 X89.942 Y162.498 E28.96737
G1 X87.595 Y163.419 E29.05123
G1 X85.315 Y164.383 E29.13356
G1 X84.238 Y164.769 E29.17161
G1 X83.109 Y165.099 E29.21073
G1 X81.488 Y165.528 E29.2665
G1 X78.988 Y166.226 E29.35283
G1 X77.87 Y166.574 E29.39178
G1 X75.798 Y167.186 E29.46364
G1 X74.769 Y167.463 E29.49908
G1 X73.852 Y167.666 E29.53032
G1 X72.922 Y167.787 E29.56151
G1 X71.983 Y167.825 E29.59277
G1 X71.081 Y167.783 E29.6228
G1 X70.114 Y167.65 E29.65527
G1 X69.081 Y167.408 E29.69055
G1 X67.95 Y167.079 E29.72973
G1 X67.25 Y166.863 E29.7541
G1 X66.297 Y166.517 E29.78782
G1 X64.841 Y165.908 E29.84031
G1 X61.631 Y164.658 E29.95488
G1 X61.115 Y164.44 E29.97351
G1 X58.877 Y163.427 E30.05522
